src/components/assets/step1.svg

<svg fill="none" height="110" viewBox="0 0 126 110" width="126" xmlns="http://www.w3.org/2000/svg" xmlns:xlink="http://www.w3.org/1999/xlink"><linearGradient id="a" gradientUnits="userSpaceOnUse" x1="8.5" x2="8.5" y1="49" y2="62"><stop offset="0" stop-color="#01f8eb"/><stop offset="1" stop-color="#01c8de"/></linearGradient><linearGradient id="b"><stop offset="0" stop-color="#ff8989"/><stop offset="1" stop-color="#ffb170"/></linearGradient><linearGradient id="c" gradientUnits="userSpaceOnUse" x1="84.7402" x2="44.2836" xlink:href="#b" y1="44.2691" y2="82.9665"/><linearGradient id="d" gradientUnits="userSpaceOnUse" x1="84.7402" x2="44.2837" xlink:href="#b" y1="34.2779" y2="72.9753"/><circle cx="63" cy="55" opacity=".6" r="54.25" stroke="#ff8989" stroke-width="1.5"/><circle cx="117.5" cy="55.5" fill="#7381ff" r="6.5" stroke="#f9fafc" stroke-width="3"/><circle cx="8.5" cy="55.5" fill="url(#a)" r="6.5" stroke="#f9fafc" stroke-width="3"/><g clip-rule="evenodd" fill-rule="evenodd"><path d="m72.0712 59.7027c.0028-.0017.0059-.0034.0089-.0051.0005-.0003.0008-.0005.0013-.0008.0011-.0005.002-.0011.0028-.0015-.0052.0029-.0094.0052-.013.0074z" fill="#2b2c2a"/><path d="m72.0712 59.7027c.0028-.0017.0059-.0034.0089-.0051.0005-.0003.0008-.0005.0013-.0008.0011-.0005.002-.0011.0028-.0015-.0052.0029-.0094.0052-.013.0074z" stroke="#f8f2e6" stroke-linecap="round" stroke-linejoin="round" stroke-width=".8"/><path d="m72.0885 59.6928c.0005-.0003.0009-.0005.0014-.0008.0094-.0055.0146-.0083.0163-.0094.0005-.0002.0007-.0003.0008-.0003-.0069.0039-.0133.0075-.0185.0105z" fill="#2b2c2a"/><path d="m72.0885 59.6928c.0005-.0003.0009-.0005.0014-.0008.0094-.0055.0146-.0083.0163-.0094.0005-.0002.0007-.0003.0008-.0003-.0069.0039-.0133.0075-.0185.0105z" stroke="#f8f2e6" stroke-linecap="round" stroke-linejoin="round" stroke-width=".8"/><path d="m80.9539 54.6844c-7.0374 3.9764-8.568 4.8411-8.8448 4.9977.0001-.0002-.0002.0002-.0013.0005-.0026.0015-.0096.0056-.0178.0103-.0023.0012-.0049.0027-.0075.0041-.0006.0002-.0009.0005-.0014.0008-.0056.0033-.0126.0072-.0207.0117-.0007.0003-.0012.0007-.0016.001-.0007.0004-.0012.0007-.0017.0009-.0039.0022-.0032.0018 0 0 .0003-.0002.001-.0005.0017-.0009.0002-.0002.0004-.0003.0006-.0005-.2627.1485-1.7611.995-8.7877 4.9653-10.8839-6.1534-7.2497-4.0994-17.68-9.9914 3.3804-1.91 14.3071-8.084 17.6821-9.9908 10.9234 6.1756 6.7582 3.8216 17.6801 9.9913zm-44.2034-14.986c-.0014 23.9293.0038 7.9637.001 29.9716 20.4523 11.5532 6.1518 3.4796 26.5213 14.9857 2.6889-1.5187 23.4397-13.2436 26.5224-14.9857.0013-23.9293-.004-7.9637-.0012-29.9716-20.619-11.6469-6.2833-3.5539-26.5212-14.9858-18.1361 10.2472-11.4077 6.4455-26.5223 14.9858z" fill="#2b2c2a"/><path d="m80.9539 54.6844c-7.0374 3.9764-8.568 4.8411-8.8448 4.9977.0001-.0002-.0002.0002-.0013.0005-.0026.0015-.0096.0056-.0178.0103-.0023.0012-.0049.0027-.0075.0041-.0006.0002-.0009.0005-.0014.0008-.0056.0033-.0126.0072-.0207.0117-.0007.0003-.0012.0007-.0016.001-.0007.0004-.0012.0007-.0017.0009-.0039.0022-.0032.0018 0 0 .0003-.0002.001-.0005.0017-.0009.0002-.0002.0004-.0003.0006-.0005-.2627.1485-1.7611.995-8.7877 4.9653-10.8839-6.1534-7.2497-4.0994-17.68-9.9914 3.3804-1.91 14.3071-8.084 17.6821-9.9909 10.9234 6.1757 6.7582 3.8217 17.6801 9.9914zm-44.2034-14.986c-.0014 23.9293.0038 7.9637.001 29.9716 20.4523 11.5532 6.1518 3.4796 26.5213 14.9857 2.6889-1.5187 23.4397-13.2436 26.5224-14.9857.0013-23.9293-.004-7.9637-.0012-29.9716-20.619-11.6469-6.2833-3.5539-26.5212-14.9858-18.1361 10.2472-11.4077 6.4455-26.5223 14.9858z" stroke="#f8f2e6" stroke-linecap="round" stroke-linejoin="round" stroke-width=".8"/><path d="m63.2733 84.6557c2.6882-1.5187 23.4395-13.244 26.5215-14.9854l.0012-9.9913c-3.2702 1.8478-23.2528 13.1387-26.5214 14.9854-2.558-1.4448-15.1157-8.5384-17.684-9.9892l.0013-9.9913c3.3861-1.9131 14.3015-8.0807 17.6821-9.9908 10.8668 6.1436 6.7949 3.8425 17.6801 9.9913l.0012-9.9912c-2.5581-1.4449-15.1156-8.5384-17.6839-9.9894-2.8343 1.6015-23.7678 13.4296-26.5214 14.9854.0033 12.2791.003 7.7496.0016 19.9804 20.4524 11.5533 6.1521 3.4796 26.5217 14.9861z" fill="url(#c)"/><path d="m63.2733 84.6557c2.6882-1.5187 23.4395-13.244 26.5215-14.9854l.0012-9.9913c-3.2702 1.8478-23.2528 13.1387-26.5214 14.9854-2.558-1.4448-15.1157-8.5384-17.684-9.9892l.0013-9.9913c3.386-1.9131 14.3015-8.0807 17.6821-9.9908 10.8668 6.1436 6.7949 3.8425 17.6801 9.9913l.0012-9.9912c-2.5581-1.4449-15.1156-8.5384-17.6839-9.9894-2.8343 1.6015-23.7678 13.4296-26.5214 14.9854.0033 12.2791.003 7.7496.0016 19.9804 20.4524 11.5533 6.1521 3.4796 26.5217 14.9861z" stroke="#f9fafc" stroke-linecap="round" stroke-linejoin="round" stroke-width="1.5"/><path d="m63.2714 34.7038c2.558 1.445 15.1156 8.5386 17.6839 9.9894l-.0012 9.9912c-18.158 10.2598.4811-.2718-17.6822 9.9909-10.8641-6.1422-6.8563-3.8771-17.68-9.9914l-.0013 9.9913c2.5582 1.4449 15.1157 8.5384 17.684 9.9892 3.2691-1.8471 23.2526-13.1383 26.5214-14.9854-.0033-12.2789-.003-7.7496-.0016-19.9802-20.6194-11.6477-6.2835-3.554-26.5218-14.9862-18.1359 10.2474-11.4073 6.4455-26.5214 14.9855l-.0012 9.9911c2.7289-1.5419 23.8994-13.5038 26.5214-14.9854z" fill="url(#d)"/><path d="m63.2714 34.7038c2.558 1.445 15.1156 8.5386 17.6839 9.9894l-.0012 9.9912c-18.158 10.2598.4811-.2718-17.6822 9.9909-10.8641-6.1422-6.8563-3.8771-17.68-9.9914l-.0013 9.9913c2.5582 1.4449 15.1157 8.5384 17.684 9.9892 3.2691-1.8471 23.2526-13.1383 26.5214-14.9854-.0033-12.2789-.003-7.7496-.0016-19.9802-20.6194-11.6477-6.2835-3.554-26.5218-14.9862-18.1359 10.2474-11.4073 6.4455-26.5214 14.9855l-.0012 9.9911c2.7289-1.5419 23.8994-13.5038 26.5214-14.9854z" stroke="#f9fafc" stroke-linecap="round" stroke-linejoin="round" stroke-width="1.5"/></g></svg>

<svg width="126" height="110" viewBox="0 0 126 110" fill="none" xmlns="http://www.w3.org/2000/svg">
<circle opacity="0.6" cx="63" cy="55" r="54.25" stroke="#FF8989" stroke-width="1.5"/>
<circle cx="117.5" cy="55.5" r="6.5" fill="#7381FF" stroke="#F9FAFC" stroke-width="3"/>
<circle cx="8.5" cy="55.5" r="6.5" fill="url(#paint0_linear)" stroke="#F9FAFC" stroke-width="3"/>
<path fill-rule="evenodd" clip-rule="evenodd" d="M72.0712 59.7027C72.074 59.701 72.0771 59.6993 72.0801 59.6976C72.0806 59.6973 72.0809 59.6971 72.0814 59.6968C72.0825 59.6963 72.0834 59.6957 72.0842 59.6953C72.079 59.6982 72.0748 59.7005 72.0712 59.7027Z" fill="#2B2C2A"/>
<path fill-rule="evenodd" clip-rule="evenodd" d="M72.0712 59.7027C72.074 59.701 72.0771 59.6993 72.0801 59.6976C72.0806 59.6973 72.0809 59.6971 72.0814 59.6968C72.0825 59.6963 72.0834 59.6957 72.0842 59.6953C72.079 59.6982 72.0748 59.7005 72.0712 59.7027Z" stroke="#F8F2E6" stroke-width="0.8" stroke-linecap="round" stroke-linejoin="round"/>
<path fill-rule="evenodd" clip-rule="evenodd" d="M72.0885 59.6928C72.089 59.6925 72.0894 59.6923 72.0899 59.692C72.0993 59.6865 72.1045 59.6837 72.1062 59.6826C72.1067 59.6824 72.1069 59.6823 72.107 59.6823C72.1001 59.6862 72.0937 59.6898 72.0885 59.6928Z" fill="#2B2C2A"/>
<path fill-rule="evenodd" clip-rule="evenodd" d="M72.0885 59.6928C72.089 59.6925 72.0894 59.6923 72.0899 59.692C72.0993 59.6865 72.1045 59.6837 72.1062 59.6826C72.1067 59.6824 72.1069 59.6823 72.107 59.6823C72.1001 59.6862 72.0937 59.6898 72.0885 59.6928Z" stroke="#F8F2E6" stroke-width="0.8" stroke-linecap="round" stroke-linejoin="round"/>
<path fill-rule="evenodd" clip-rule="evenodd" d="M80.9539 54.6844C73.9165 58.6608 72.3859 59.5255 72.1091 59.6821C72.1092 59.6819 72.1089 59.6823 72.1078 59.6826C72.1052 59.6841 72.0982 59.6882 72.09 59.6929C72.0877 59.6941 72.0851 59.6956 72.0825 59.697C72.0819 59.6972 72.0816 59.6975 72.0811 59.6978C72.0755 59.7011 72.0685 59.705 72.0604 59.7095C72.0597 59.7098 72.0592 59.7102 72.0588 59.7105C72.0581 59.7109 72.0576 59.7112 72.0571 59.7114C72.0532 59.7136 72.0539 59.7132 72.0571 59.7114C72.0574 59.7112 72.0581 59.7109 72.0588 59.7105C72.059 59.7103 72.0592 59.7102 72.0594 59.71C71.7967 59.8585 70.2983 60.705 63.2717 64.6753C52.3878 58.5219 56.022 60.5759 45.5917 54.6839C48.9721 52.7739 59.8988 46.5999 63.2738 44.6931C74.1972 50.8687 70.032 48.5147 80.9539 54.6844ZM36.7505 39.6984C36.7491 63.6277 36.7543 47.6621 36.7515 69.67C57.2038 81.2232 42.9033 73.1496 63.2728 84.6557C65.9617 83.137 86.7125 71.4121 89.7952 69.67C89.7965 45.7407 89.7912 61.7063 89.794 39.6984C69.175 28.0515 83.5107 36.1445 63.2728 24.7126C45.1367 34.9598 51.8651 31.1581 36.7505 39.6984Z" fill="#2B2C2A"/>
<path fill-rule="evenodd" clip-rule="evenodd" d="M80.9539 54.6844C73.9165 58.6608 72.3859 59.5255 72.1091 59.6821C72.1092 59.6819 72.1089 59.6823 72.1078 59.6826C72.1052 59.6841 72.0982 59.6882 72.09 59.6929C72.0877 59.6941 72.0851 59.6956 72.0825 59.697C72.0819 59.6972 72.0816 59.6975 72.0811 59.6978C72.0755 59.7011 72.0685 59.705 72.0604 59.7095C72.0597 59.7098 72.0592 59.7102 72.0588 59.7105C72.0581 59.7109 72.0576 59.7112 72.0571 59.7114C72.0532 59.7136 72.0539 59.7132 72.0571 59.7114C72.0574 59.7112 72.0581 59.7109 72.0588 59.7105C72.059 59.7103 72.0592 59.7102 72.0594 59.71C71.7967 59.8585 70.2983 60.705 63.2717 64.6753C52.3878 58.5219 56.022 60.5759 45.5917 54.6839C48.9721 52.7739 59.8988 46.5999 63.2738 44.693C74.1972 50.8687 70.032 48.5147 80.9539 54.6844ZM36.7505 39.6984C36.7491 63.6277 36.7543 47.6621 36.7515 69.67C57.2038 81.2232 42.9033 73.1496 63.2728 84.6557C65.9617 83.137 86.7125 71.4121 89.7952 69.67C89.7965 45.7407 89.7912 61.7063 89.794 39.6984C69.175 28.0515 83.5107 36.1445 63.2728 24.7126C45.1367 34.9598 51.8651 31.1581 36.7505 39.6984Z" stroke="#F8F2E6" stroke-width="0.8" stroke-linecap="round" stroke-linejoin="round"/>
<path fill-rule="evenodd" clip-rule="evenodd" d="M63.2733 84.6557C65.9615 83.137 86.7128 71.4117 89.7948 69.6703L89.796 59.679C86.5258 61.5268 66.5432 72.8177 63.2746 74.6644C60.7166 73.2196 48.1589 66.126 45.5906 64.6752L45.5919 54.6839C48.978 52.7708 59.8934 46.6032 63.274 44.6931C74.1408 50.8367 70.0689 48.5356 80.9541 54.6844L80.9553 44.6932C78.3972 43.2483 65.8397 36.1548 63.2714 34.7038C60.4371 36.3053 39.5036 48.1334 36.75 49.6892C36.7533 61.9683 36.753 57.4388 36.7516 69.6696C57.204 81.2229 42.9037 73.1492 63.2733 84.6557Z" fill="url(#paint1_linear)"/>
<path fill-rule="evenodd" clip-rule="evenodd" d="M63.2733 84.6557C65.9615 83.137 86.7128 71.4117 89.7948 69.6703L89.796 59.679C86.5258 61.5268 66.5432 72.8177 63.2746 74.6644C60.7166 73.2196 48.1589 66.126 45.5906 64.6752L45.5919 54.6839C48.9779 52.7708 59.8934 46.6032 63.274 44.6931C74.1408 50.8367 70.0689 48.5356 80.9541 54.6844L80.9553 44.6932C78.3972 43.2483 65.8397 36.1548 63.2714 34.7038C60.4371 36.3053 39.5036 48.1334 36.75 49.6892C36.7533 61.9683 36.753 57.4388 36.7516 69.6696C57.204 81.2229 42.9037 73.1492 63.2733 84.6557Z" stroke="#F9FAFC" stroke-width="1.5" stroke-linecap="round" stroke-linejoin="round"/>
<path fill-rule="evenodd" clip-rule="evenodd" d="M63.2714 34.7038C65.8294 36.1488 78.387 43.2424 80.9553 44.6932L80.9541 54.6844C62.7961 64.9442 81.4352 54.4126 63.2719 64.6753C52.4078 58.5331 56.4156 60.7982 45.5919 54.6839L45.5906 64.6752C48.1488 66.1201 60.7063 73.2136 63.2746 74.6644C66.5437 72.8173 86.5272 61.5261 89.796 59.679C89.7927 47.4001 89.793 51.9294 89.7944 39.6988C69.175 28.0511 83.5109 36.1448 63.2726 24.7126C45.1367 34.96 51.8653 31.1581 36.7512 39.6981L36.75 49.6892C39.4789 48.1473 60.6494 36.1854 63.2714 34.7038Z" fill="url(#paint2_linear)"/>
<path fill-rule="evenodd" clip-rule="evenodd" d="M63.2714 34.7038C65.8294 36.1488 78.387 43.2424 80.9553 44.6932L80.9541 54.6844C62.7961 64.9442 81.4352 54.4126 63.2719 64.6753C52.4078 58.5331 56.4156 60.7982 45.5919 54.6839L45.5906 64.6752C48.1488 66.1201 60.7063 73.2136 63.2746 74.6644C66.5437 72.8173 86.5272 61.5261 89.796 59.679C89.7927 47.4001 89.793 51.9294 89.7944 39.6988C69.175 28.0511 83.5109 36.1448 63.2726 24.7126C45.1367 34.96 51.8653 31.1581 36.7512 39.6981L36.75 49.6892C39.4789 48.1473 60.6494 36.1854 63.2714 34.7038Z" stroke="#F9FAFC" stroke-width="1.5" stroke-linecap="round" stroke-linejoin="round"/>
<defs>
<linearGradient id="paint0_linear" x1="8.5" y1="49" x2="8.5" y2="62" gradientUnits="userSpaceOnUse">
<stop stop-color="#01F8EB"/>
<stop offset="1" stop-color="#01C8DE"/>
</linearGradient>
<linearGradient id="paint1_linear" x1="84.7402" y1="44.2691" x2="44.2836" y2="82.9665" gradientUnits="userSpaceOnUse">
<stop stop-color="#FF8989"/>
<stop offset="1" stop-color="#FFB170"/>
</linearGradient>
<linearGradient id="paint2_linear" x1="84.7402" y1="34.2779" x2="44.2837" y2="72.9753" gradientUnits="userSpaceOnUse">
<stop stop-color="#FF8989"/>
<stop offset="1" stop-color="#FFB170"/>
</linearGradient>
</defs>
</svg>
